X:1
T:"From 84th Psalm, etc."
T:D Major Oliver Holden, 1796
T:How amiable are Thy tabernacles Thanksgiving Anthem No copyright. Transcribed from The Union Harmony, 1796.
%%score [ 1 2 3 4 ]
L:1/8
M:2/4
K:D
V:1 treble nm="Treble" snm="Treble"
V:2 treble nm="Counter" snm="Counter"
V:3 treble-8 nm="Tenor" snm="Tenor"
V:4 bass nm="Bass" snm="Bass"
V:1
"^Moderato" F2 | A>A A2 | BA GF | G2 G2 | E4 | D4 | z2 F2 | G>G G2 | A>B A^G | A2 A2 | d2 e2 | %11
w: How|a- mi- able|are Thy ta- ber-|na- cles,|O|Lord.||||||
 f2 e2 | d4 | z4 | z4 | z4 | z4 | z4 | z4 | z4 | z2 d2 | fe dc | dc de | fe dd | c3 c | d4 || %26
w: |||||||||My|heart * and my|flesh * cri- eth|out * for the|li- ving|God.|
"^Chorus" A2 AA | AA AA | G2 F2 | d2 de | A2 (G2 | F3) d | d4 | d2 AA | d4 | c3 A | A4 || A3 B | %38
w: |||||||||||Yea, the|
 G E2 G/A/ | BA G2 | F2 A>B | cd B2 | A2 GF | (F2 E2) | F2 GA | F2 E2 | D4 | F3 G | A>d AG | %49
w: spar- row hath *|found * an|house, And the|swal- low a|nest for her-|self, *|Where she may|lay her|young,|ev- en|Thine * al- tars,|
 (F2 E2) | F2 GA/B/ | A2 (3dcd | e2 dc | d4 ||"^Chorus" A2 AA | AA AA | G2 F2 | d2 de | A2 G2 | %59
w: O *|Lord of~~ _ _|hosts, my~ _ _|King and my|God.||||||
 F3 d | d4 | d2 AA | d4 | c3 A | A4 || z4 | z4 | z4 | z4 | z4 | z4 | z4 | z4 | z4 | z4 | z4 | z4 | %77
w: ||||||||||||||||||
 z4 | z4 | z4 | z4 | z4 || A2 AA | AA AA | G2 F2 | d2 de | A2 G2 | F3 d | d4 | d2 AA | d4 | c3 A | %92
w: |||||||||||||||
 A4 ||[M:3/4] z2 z2 A2 | F4 d2 | A2 B2 A>d | c4 A>B ||[M:2/4] cd ed | c2 AA | Ad cd | e4 | [df]4 || %102
w: ||||||||||
[M:3/4] z2 z2"^Grave" F2 | F2 F2 F2 | F4 z2 | ^A4 A2 | ^A4 d2 | A4 c>B | A2 B2 A2 | A2 A2 d2 | %110
w: ||||||||
 d4 d2 | A4 G2 | F4 A2 | AA AA AA | A4 ^G2 | A2 A2 z2 ||[M:2/4] z2 A>A | d>B B/c/ d/B/ | e3 f | %119
w: ||||||For a|day * in * Thy *|courts is|
 ed cB | A2 A2 | z2 F>G | AA Bc | d2 AA | G>F E>A | ^G4 | A2 A>A | BA Bc | de/f/ e2 | d4 || %130
w: bet- ter than a|thou- sand:|I had|ra- ther be a|door- kee- per|in the house of|my|God, Than to|dwell * in the|tents * * of|sin.|
"^Vivace" A2 AA | d3 d | c/B/ c/d/ e>d | cc dA | A2 ^G2 | !fermata!A2 z2 | z2 AA/A/ | %137
w: ||||||There they be-|
 cc c/B/ c/d/ | dd c/B/ c/d/ | e3 c | dd ff | AA Ad | c/B/ c/d/ ed | cc cd | f/e/f/g/ fd | A2 A2 | %146
w: hold Thy gent- * ler *|rays, Thy gent- * ler *|rays, *|||||||
 !fermata!A2 DD/D/ | FF AA | dd dd | ee ee | e2 dd/d/ | BB c/d/ e/d/ | cc dA | cc cc | c3 c | %155
w: |||||||||
 df ed | c2 e2 | f4 |] %158
w: |||
V:2
 z2 | z4 | z4 | z4 | z4 | z4 | z2 D2 | D>D D2 | E>F ED | C2 C2 | D2 A2 | A2 G2 | F4 | z4 | z4 | %15
w: ||||||How|a- mi- able|are Thy ta- ber-|na- cles,|O Lord|God of|hosts.|||
 z4 | z4 | z4 | z4 | z4 | z4 | z4 | z4 | z4 | z4 | z4 || D2 DE | FG FE | D2 D2 | G2 GG | F2 D2- | %31
w: |||||||||||Bles- sed are|they that dwell in|Thy house;|They will be|still prai-|
 D3 D | F4 | F2 FG | A4 | AG FE | F4 || z4 | z4 | z4 | z4 | z4 | z4 | z4 | z4 | z4 | z4 | z4 | z4 | %49
w: * sing|Thee;|They will be|still|prai- * * sing|Thee.|||||||||||||
 z4 | z4 | z4 | z4 | z4 || D2 DE | FG FE | D2 D2 | G2 GG | F2 D2- | D3 D | F4 | F2 FG | A4 | %63
w: |||||Bles- sed are|they that dwell in|Thy house;|They will be|still prai-|* sing|Thee;|They will be|still|
 AG FE | F4 || z4 | z4 | z4 | z4 | z4 | z4 | z4 | z4 | z4 | z4 | z4 | z4 | z4 | z4 | z4 | z4 | %81
w: prai- * * sing|Thee.|||||||||||||||||
 z4 || D2 DE | FG FE | D2 D2 | G2 GG | F2 D2- | D3 D | F4 | F2 FG | A4 | AG FE | F4 || %93
w: |Bles- sed are|they that dwell in|Thy house;|They will be|still prai-|* sing|Thee;|They will be|still|prai- * * sing|Thee.|
[M:3/4] z2 z2 D2 | D4 F2 | F2 D2 A2 | A4 A>A ||[M:2/4] AA A^G | A2 AA | A2 AA | (A2 G2) | F4 || %102
w: They|go from|strength * to|strength, eve- ry|one of them in|Zi- on ap-|pea- reth be-|fore *|God.|
[M:3/4] z2 z2 D2 | D2 D2 D2 | D4 z2 | F4 F2 | F4 A2 | A4 G2 | F4 E2 | F2 F2 F2 | G4 F2 | F4 D2 | %112
w: O|Lord God of|hosts,|hear my|prayer, give|ear, O|God of|Ja- cob; Be-|hold, O|God our|
 D4 F2 | EF EF ED | E4 D2 | C2 C2 z2 ||[M:2/4] z4 | z4 | z4 | z4 | z4 | z4 | z4 | z4 | z4 | z4 | %126
w: shield, And|look up- on the face of|Thine a-|noin- ted.|||||||||||
 z4 | z4 | z4 | z4 || F2 FF | A3 F | AA A>A | AA AF | E2 D2 | !fermata!C2 z2 | z4 | z2 AA/A/ | %138
w: ||||Blest are the|souls who|find a place With-|in the tem- ple|of Thy|grace.||There they be-|
 AA AA | A3 A | AA AA | AA AF | E/D/ E/F/ GF | EE EF | FF AG | F2 E2 | !fermata!D2 DD/D/ | DD CC | %148
w: hold Thy gent- ler|rays, And|seek Thy face and|learn Thy praise, And|seek * Thy * face and|learn Thy praise, And|seek Thy face and|learn Thy|praise. Cheer- ful they|walk with gro- wing|
 DF GG | GG AA | A2 FF/F/ | GG EE | AA AA | AA AA | A3 A | AA G F/G/ | A2 G2 | F4 |] %158
w: strength, 'Til all shall|meet in heaven at|length, 'Til all be-|fore Thy face ap-|pear, And join in|no- bler wor- ship|there, And|join in no- bler *|wor- ship|there.|
V:3
 D2 | F>F F2 | GF ED | E2 E2 | G4 | F4 | z2 A2 | B>B B2 | c>d cB | A2 A2 | B2 c2 | d2 c2 | d4 | %13
w: How|a- mi- able|are Thy ta- ber-|na- cles,|O|Lord.||||||||
 z4 | z4 | z4 | z4 | z4 | z4 | z4 | z4 | z4 | z4 | z4 | z4 | z4 || d2 dc | de dc | B2 A2 | B2 Bc | %30
w: |||||||||||||||||
 d2 (B/A/B/c/ | d/e/d/c/ B>)A | A4 | d2 de | f4 | e3 d/c/ | d4 || z4 | z4 | z4 | z4 | z4 | z4 | %43
w: |||||||||||||
 z4 | z4 | z4 | z4 | z4 | z4 | z4 | z4 | z4 | z4 | z4 || d2 dc | de dc | B2 A2 | B2 Bc | %58
w: |||||||||||||||
 d2 (B/A/B/c/ | d/e/d/c/ B>)A | A4 | d2 de | f4 | e3 d/c/ | d4 || z4 | z4 | z4 | z4 | z4 | z4 | %71
w: |||||||||||||
 z4 | z4 | z4 | z4 | z4 | z4 | z4 | z4 | z4 | z4 | z4 || d2 dc | de dc | B2 A2 | B2 Bc | %86
w: |||||||||||||||
 d2 (B/A/B/c/ | d/e/d/c/ B>)A | A4 | d2 de | f4 | e3 d/c/ | d4 ||[M:3/4] z2 z2 A2 | A4 A2 | d4 cd | %96
w: ||||||||||
 e4 c>d ||[M:2/4] ed cB | c2 cc | df ed | c4 | d4 ||[M:3/4] z2 z2 B2 | B2 B2 B2 | B4 z2 | c4 c2 | %106
w: ||||||||||
 c4 d2 | f4 e>d | d4 c2 | d2 d2 A2 | B4 AG | F4 B2 | A4 d2 | ed cd e f/d/ | c4 B2 | A2 A2 z2 || %116
w: ||||||||||
[M:2/4] z4 | z4 | z4 | z4 | z4 | z4 | z4 | z4 | z4 | z4 | z4 | z4 | z4 | z4 || d2 d/c/ d/e/ | %131
w: |||||||||||||||
 f3 d | e/d/ e/f/ g>f | ee fd | c2 B2 | !fermata!A2 AA/A/ | dd c/B/ c/d/ | e2 ee/e/ | %138
w: ||||* There they be-|hold Thy gent- * ler *|rays, There they be-|
 ff e/d/ e/f/ | g3 e | ff dd | ec (A2 | A/>B/A/>G/ A2 | A3) A | d/c/ d/e/ dG | F2 E2 | %146
w: hold Thy gent- * ler *|rays, *||learn thy praise~~~|_ _ _ _ _|* And|||
 !fermata!F2 DD/D/ | FF GG | AA BB | BB cc | c2 AA/A/ | dd c/B/ c/d/ | ee fd | ee ee | e3 e | %155
w: |||||||||
 fd a f/e/ | d2 c2 | d4 |] %158
w: |||
V:4
 z2 | z4 | z4 | z4 | z4 | z4 | z2 D,2 | G,>G, G,2 | E,>F, E,E, | A,,2 A,,2 | D,2 A,2 | F,2 A,2 | %12
w: ||||||||||||
 D,4 | z2 D,2 | F,2 B,B, | CD CB, | F,E, D,E, | (F,B,^A,B, | F,/G,/F,/E,/D,E,) | F,2 F,2 | %20
w: |My|soul lon- geth,|yea, * ev- en|fain- teth for the|courts~ _ _ _|_ _ _ _ _ _|of the|
 B,2 B,2 | DC B,^A, | B,^A, B,C | DC B,F, | A,3 A, | D,4 || D,2 D,A,, | D,A, F,A, | B,2 F,2 | %29
w: Lord; *|||out * for the|li- ving|God.||||
 G,2 G,E, | D,2 (G,/F,/G,/A,/ | B,/C/B,/A,/ G,>)F, | F,4 | D,2 D,A, | D4 | A,3 A, | D,4 || z4 | %38
w: |||||||||
 z4 | z4 | z4 | z4 | z4 | z4 | z4 | z4 | z4 | z4 | z4 | z4 | z4 | z4 | z4 | z4 || D,2 D,A,, | %55
w: |||||||||||||||||
 D,A, F,A, | B,2 F,2 | G,2 G,E, | D,2 (G,/F,/G,/A,/ | B,/C/B,/A,/ G,>)F, | F,4 | D,2 D,A, | D4 | %63
w: ||||||||
 A,3 A, | D,4 || A,2 G,F, | E,D, E,F, | G,A, D2 | A,2 B,D | A,4 | D,2 D,2 | z2 D,2 | %72
w: ||One thing have|I de- si- red|of the Lord,|that will I|seek|af- ter:|That|
 D,D, A,A,/A,/ | B,A, G,G, | F,2 E,F, | G,G, A,2 | D,2 D,B,, | E,2 F,2 | B,,2 B,,2 | F,2 F,E, | %80
w: I may dwell in the|house * of the|Lord all the|days of my|life, To be-|hold His|beau- ty,|And to in-|
 D,2 F,A, | D,2 D,2 || D,2 D,A,, | D,A, F,A, | B,2 F,2 | G,2 G,E, | D,2 (G,/F,/G,/A,/ | %87
w: quire in His|tem- ple.||||||
 B,/C/B,/A,/ G,>)F, | F,4 | D,2 D,A, | D4 | A,3 A, | D,4 ||[M:3/4] z2 z2 D,2 | D,4 D,2 | %95
w: ||||||||
 F,2 G,2 A,2 | A,4 A,>A, ||[M:2/4] A,A, A,E, | A,2 A,A, | A,2 A,A, | A,4 | D,4 || %102
w: |||||||
[M:3/4] z2 z2 B,,2 | B,,2 B,,2 B,,2 | B,,4 z2 | F,4 F,2 | F,4 F,2 | D,4 A,2 | F,2 G,2 A,2 | %109
w: |||||||
 D,2 D,2 F,2 | G,4 F,E, | D,4 D,2 | D,4 D,2 | C,D, E,D, C,D, | E,4 E,2 | A,,2 A,,2 z2 || %116
w: |||||||
[M:2/4] z2 D,>D, | D,2 D,D, | A,3 D, | C,D, E,E, | A,,2 A,,2 | z2 D,>E, | F,F, G,A, | B,2 F,F, | %124
w: For a||||||||
 D,>D, E,>E, | E,4 | A,2 F,>F, | G,F, G,A, | B,G, A,2 | D,4 || D,2 D,D, | D,3 D, | A,A, A,>D, | %133
w: in the house of|my|God, Than to|dwell * in the|tents * of|sin.||||
 E,E, A,A,, | E,2 E,2 | !fermata!A,,2 z2 | z4 | z2 A,A,/A,/ | DD A,A, | A,3 A, | DD D,D, | %141
w: ||||There they be-|hold Thy gent- ler|rays, *||
 A,A, (A,2 | A,,4 | A,,3) D, | D,D, D,G, | A,2 A,,2 | !fermata!D,2 D,D,/D,/ | D,D, A,,A,, | %148
w: |||||||
 D,D, G,G, | E,E, A,A, | A,2 F,F,/F,/ | G,G, A,A, | A,A, A,A, | A,A, A,A, | A,3 A, | DD A,A, | %156
w: ||||||||
 A,2 A,2 | D,4 |] %158
w: ||

